!!!COM:	de Orto, Marbrianus
!!!CDT:	~1460///-1529//
!!!OPR:	Missa La belle se siet
!!!ONM:	5
!!!OTL:	Agnus Dei
!!!AGN:	Mass; Agnus Dei
!!!SCT:	Ort1003e
!!!SCA:	Ort1003e
!!!voices-OPR:	4
!!!voices:	4
**kern	**text	**kern	**text	**kern	**text	**kern	**text
*staff4	*staff4	*staff3	*staff3	*staff2	*staff2	*staff1	*staff1
*Ivox	*	*Ivox	*	*Ivox	*	*Ivox	*
*I"Bassus	*	*I"Tenor	*	*I"Altus	*	*I"Superius	*
*I'B	*	*I'T	*	*I'A	*	*I'S	*
*>[A,B,C]	*>[A,B,C]	*>[A,B,C]	*>[A,B,C]	*>[A,B,C]	*>[A,B,C]	*>[A,B,C]	*>[A,B,C]
*>A	*>A	*>A	*>A	*>A	*>A	*>A	*>A
*clefF4	*	*clefGv2	*	*clefGv2	*	*clefG2	*
*k[b-]	*	*k[b-]	*	*k[b-]	*	*k[b-]	*
*M3/1	*	*M3/1	*	*M3/1	*	*M3/1	*
*met(O)	*	*met(O)	*	*met(O)	*	*met(O)	*
!!section: Agnus Dei I
!!!OMD: Agnus Dei I
=1-	=1-	=1-	=1-	=1-	=1-	=1-	=1-
0.r	.	0.r	.	1F	A-	0f	A-
.	.	.	.	2.F/	-gnus	.	.
.	.	.	.	4G/	.	.	.
.	.	.	.	2A/	.	1f	-gnus
.	.	.	.	[2B-\	De-	.	.
=2	=2	=2	=2	=2	=2	=2	=2
0.r	.	0.r	.	2B-\]	.	2.g/	De-
.	.	.	.	2c\	.	.	.
.	.	.	.	.	.	4a/	.
.	.	.	.	2d\	.	2b-\	.
.	.	.	.	2c\	.	1a	.
.	.	.	.	1B-	.	.	.
.	.	.	.	.	.	2g/	.
=3	=3	=3	=3	=3	=3	=3	=3
0.r	.	0F	A-	2A/	-i,	0a	-i,
.	.	.	.	2.c\	A-	.	.
.	.	.	.	4F/	.	.	.
.	.	.	.	2c\	.	.	.
.	.	1F	-gnus	2d\	.	1a	A-
.	.	.	.	[2c\	.	.	.
=4	=4	=4	=4	=4	=4	=4	=4
0.r	.	2.F/	De-	2c\]	.	0cc	.
.	.	.	.	2f\	.	.	.
.	.	4G/	.	.	.	.	.
.	.	1A	.	2e\	.	.	.
.	.	.	.	2c\	-gnus	.	.
.	.	2G/	.	[1d	De-	2.b-\	.
.	.	[2B-\	.	.	.	.	.
.	.	.	.	.	.	8a/L	.
.	.	.	.	.	.	8g/J	.
=5	=5	=5	=5	=5	=5	=5	=5
1r	.	2B-\]	.	1d]	.	2f/	.
.	.	2G/	.	.	.	2g/	-gnus
1r	.	2F/	.	1d	-i,	2a/	De-
.	.	2G/	.	.	.	1g	.
1D	qui	1A	.	1d	qui	.	.
.	.	.	.	.	.	2f#i/	.
=6	=6	=6	=6	=6	=6	=6	=6
2.E-\	tol-	2G/	-i,	2B-\	tol-	1g	-i,
.	.	2C/	qui	1c	.	.	.
4D\	.	.	.	.	.	.	.
2C/	.	2E/	.	.	.	1r	.
2BB-/	.	2F/	.	2d\	.	.	.
1C	.	1E	.	2G/	.	1g	qui
.	.	.	.	2c\	.	.	.
=7	=7	=7	=7	=7	=7	=7	=7
2BB-/	.	4D/	tol-	2.d\	.	1b-	tol-
.	.	4E/	.	.	.	.	.
4AA/	.	4F/	.	.	.	.	.
4GG/	.	4G/	.	4e\	.	.	.
2FF/	.	2A/	.	2f\	.	2a/	.
2GG/	.	2G/	.	2B-\	.	1b-	.
2.BB-/	.	2F/	.	1d	-lis	.	.
.	.	2B-\	.	.	.	4a/	.
4C/	.	.	.	.	.	4g/	.
=8	=8	=8	=8	=8	=8	=8	=8
1D	-lis	1A	.	2.d\	qui	2.f/	.
.	.	.	.	4B-\	.	4g/	.
2r	.	2F/	.	2c\	.	2a/	.
1E-i	qui	2G/	-lis,	2.B-\	tol-	2b-\	.
.	.	2r	.	.	.	2g/	.
.	.	.	.	4c\	.	.	.
2D\	.	2F/	qui	2d\	.	2a/	.
=9	=9	=9	=9	=9	=9	=9	=9
2E-i\	tol-	1G	tol-	2B-\	.	4g/	.
.	.	.	.	.	.	4f/	.
2C/	.	.	.	2.c\	.	4e/	.
.	.	.	.	.	.	4d/	.
2F\	.	2A/	.	.	.	2c/	.
.	.	.	.	4A/	.	.	.
2BB-/	.	2B-\	.	2d\	.	1f	.
1C	-lis	1G	.	1c	.	.	.
.	.	.	.	.	.	2e/	.
=10	=10	=10	=10	=10	=10	=10	=10
2r	.	2.F/	.	1A	.	1f	-lis
2FF/	pec-	.	.	.	.	.	.
.	.	8G/L	.	.	.	.	.
.	.	8A/J	.	.	.	.	.
2GG/	.	2B-\	.	2G/	.	1r	.
2AA/	.	1A	.	2E/	.	.	.
1BB-	-ca-	.	.	2.D/	.	1r	.
.	.	2G/	.	.	.	.	.
.	.	.	.	4C/	.	.	.
=11	=11	=11	=11	=11	=11	=11	=11
1AA	.	1A	-lis	2E/	.	1cc	pec-
.	.	.	.	2C/	-lis	.	.
2BB-/	.	2D/	pec-	2r	.	2dd\	-ca-
2AA/	.	1F	-ca-	2c\	pec-	2cc\	.
1GG	-ta	.	.	2.d\	-ca-	1b-	.
.	.	2E/	.	.	.	.	.
.	.	.	.	4B-\	.	.	.
=12	=12	=12	=12	=12	=12	=12	=12
1r	.	1F	.	2c\	.	0.a	-ta
.	.	.	.	1d	.	.	.
1AA	mun-	1E	-ta	.	.	.	.
.	.	.	.	2c\	-ta	.	.
1D	-di,	2.D/	mun-	2.f\	mun-	.	.
.	.	4E/	.	4e\	.	.	.
=13	=13	=13	=13	=13	=13	=13	=13
1r	.	4F/	.	2d\	.	1r	.
.	.	4G/	.	.	.	.	.
.	.	1A	.	2c\	.	.	.
1r	.	.	.	1B-	.	1r	.
.	.	2G/	.	.	.	.	.
1AA	mun-	1A	.	2A/	.	1cc	mun-
.	.	.	.	2F/	-di,	.	.
=14	=14	=14	=14	=14	=14	=14	=14
1.BB-	.	1D	-di,	2.f\	mun-	2.dd\	.
.	.	.	.	4e\	.	4cc\	.
.	.	1r	.	2d\	.	4b-\	.
.	.	.	.	.	.	4a/	.
2C/	.	.	.	2c\	.	1a	.
2D\	.	1r	.	1B-	.	.	.
2E\	.	.	.	.	.	2g/	.
=15	=15	=15	=15	=15	=15	=15	=15
2.F\	.	0.r	.	2A/	.	1a	-di,
.	.	.	.	2c\	.	.	.
4E\	.	.	.	.	.	.	.
2D\	.	.	.	2B-\	.	1r	.
2C/	.	.	.	1A	.	.	.
1BB-	.	.	.	.	.	1r	.
.	.	.	.	2G/	.	.	.
=16	=16	=16	=16	=16	=16	=16	=16
1AA	-di,	2.A/	mi-	2A/	-di,	2.cc\	mi-
.	.	.	.	1c	mi-	.	.
.	.	4G/	.	.	.	4b-\	.
1r	.	2F/	.	.	.	2a/	.
.	.	2E/	-se-	2C/	-se-	2g/	.
1r	.	2.A/	-re-	1D	.	2.f/	.
.	.	4G/	.	.	.	4e/	.
=17	=17	=17	=17	=17	=17	=17	=17
1r	.	4F/	.	2D/	-re-	2.a/	.
.	.	4E/	.	.	.	.	.
.	.	2.D/	.	1F	.	.	.
.	.	.	.	.	.	4g/	.
1r	.	.	.	.	.	2f/	.
.	.	4C/	.	.	.	.	.
.	.	1c	.	2C/	.	2e/	-se-
1GG	mi-	.	.	1G	.	1d	-re-
.	.	2Bni\	.	.	.	.	.
=18	=18	=18	=18	=18	=18	=18	=18
1AA	-se-	1c	.	2E/	.	4c/	.
.	.	.	.	.	.	4d/	.
.	.	.	.	2C/	-re,	4e/	.
.	.	.	.	.	.	4f/	.
2GG/	-re-	2B-\	.	2r	.	2g/	.
2AA/	.	2A/	.	2c\	mi-	1f	.
2BB-/	.	1G	-re,	2d\	.	.	.
2C/	.	.	.	[2c\	.	2e/	.
=19	=19	=19	=19	=19	=19	=19	=19
1AA	-re,	2r	.	4c\]	.	1cc	.
.	.	.	.	4d\	.	.	.
.	.	2A/	mi-	4e\	.	.	.
.	.	.	.	4f\	.	.	.
1r	.	2G/	.	2g\	.	2b-\	.
.	.	2A/	-se-	1f	.	2a/	.
1r	.	2B-\	-re-	.	.	1g	-re
.	.	2c\	.	2e\	-se-	.	.
=20	=20	=20	=20	=20	=20	=20	=20
1BB-	mi-	1d	.	1f	-re-	2f/	mi-
.	.	.	.	.	.	2.b-\	.
2BB-/	-se-	2D/	.	2f\	-re,	.	.
.	.	.	.	.	.	4a/	.
1C	-re-	2E/	.	2e\	.	4g/	.
.	.	.	.	.	.	4f/	.
.	.	1G	.	1c	.	1e	-se-
2C/	-re,	.	.	.	.	.	.
=21	=21	=21	=21	=21	=21	=21	=21
1D	mi-	1F	-re	2A/	no-	2.a/	-re-
.	.	.	.	2.d\	.	.	.
.	.	.	.	.	.	4g/	.
2D\	-se-	1.A	no-	.	.	4f/	.
.	.	.	.	4c\	.	4e/	.
1F	-re-	.	.	2A/	-bis,	2d/	.
.	.	.	.	2r	.	2c/	.
2E\	.	2G/	.	2c\	mi-	[2g/	.
=22	=22	=22	=22	=22	=22	=22	=22
2C/	.	2E/	.	2.c\	-se-	4g/]	.
.	.	.	.	.	.	4f/	.
1D	.	2F/	-bis,	.	.	2.f/	.
.	.	.	.	4B-\	.	.	.
.	.	2r	.	4B-\	-re-	.	.
.	.	.	.	4A/	.	4e/	.
1C	.	2G/	mi-	2c\	-re,	2e/	-re
.	.	2A/	.	2r	.	2r	.
2C/	-re	4E/	.	2G/	mi-	2c/	mi-
.	.	4F/	.	.	.	.	.
=23	=23	=23	=23	=23	=23	=23	=23
2C/	no-	4G/	.	2c\	.	2e/	.
.	.	4A/	.	.	.	.	.
2BB-/	.	2B-\	.	2d\	.	2d/	.
2C/	.	2G/	-se-	2e-\	.	2g/	.
2D\	-bis,	1B-	-re-	2d\	.	2f/	.
1E-	mi-	.	.	2B-\	-se-	2.g/	.
.	.	2B-\	-re,	[2e-\	-re-	.	.
.	.	.	.	.	.	4a/	.
=24	=24	=24	=24	=24	=24	=24	=24
2E-i\	-se-	1G	.	4e-\]	.	1b-	.
.	.	.	.	4d\	.	.	.
1E-i	-re-	.	.	2B-\	-re	.	.
.	.	1r	.	2r	.	2b-\	-se-
4D\	.	.	.	2e-i\	no-	1b-	-re-
4C/	.	.	.	.	.	.	.
2.BB-/	.	2F/	no-	[1d	.	.	.
.	.	2B-\	.	.	.	4a/	.
4C/	.	.	.	.	.	4g/	.
=25	=25	=25	=25	=25	=25	=25	=25
2D\	.	2A/	.	2d\]	.	2f/	.
2E-i\	-re	2G/	-bis,	2B-\	.	2.g/	.
1C	no-	2r	.	1c	-bis,	.	.
.	.	.	.	.	.	4f/	.
.	.	2.A/	no-	.	.	2e/	.
1BB-	-bis,	.	.	1r	.	1d	.
.	.	4G/	.	.	.	.	.
.	.	4G/	.	.	.	.	.
.	.	4F/	.	.	.	.	.
=26	=26	=26	=26	=26	=26	=26	=26
1r	.	1A	-bis,	2.F/	mi-	2c/	-re
.	.	.	.	.	.	2.cc\	no-
.	.	.	.	4G/	.	.	.
1F	no-	1r	.	4A/	.	.	.
.	.	.	.	4B-\	.	4b-\	.
.	.	.	.	2c\	.	4a/	.
.	.	.	.	.	.	4g/	.
2G\	.	1r	.	2G/	.	2b-\	.
2F\	.	.	.	[2c\	.	[2a/	.
=27	=27	=27	=27	=27	=27	=27	=27
1E-	.	1G	mi-	2c\]	.	4a/]	.
.	.	.	.	.	.	4g/	.
.	.	.	.	2c\	-se-	1g	.
1D	-bis,	1A	-se-	1d	-re-	.	.
.	.	.	.	.	.	2f#i/	.
2r	.	2G/	-re-	2B-\	.	2g/	.
[2F\	mi-	[2c\	.	2A/	-re	[2a/	.
=28	=28	=28	=28	=28	=28	=28	=28
2F\]	.	4c\]	.	0.r	.	4a/]	.
.	.	4A/	.	.	.	4f/	.
2G\	-se-	2.d\	.	.	.	2b-\	.
2F\	-re-	.	.	.	.	2a/	.
.	.	4c\	.	.	.	.	.
1E	.	2c\	.	.	.	2g/	-bis,
.	.	2.B-\	.	.	.	2r	.
[2D\	.	.	.	.	.	[2f/	no-
.	.	4A/	.	.	.	.	.
=29	=29	=29	=29	=29	=29	=29	=29
2D\]	.	2F/	.	1r	.	4f/]	.
.	.	.	.	.	.	4e/	.
2F\	.	2A/	.	.	.	4d/	.
.	.	.	.	.	.	4c/	.
2E\	.	2G/	.	2r	.	2g/	.
2D\	.	2F/	-re	2A/	no-	2.a/	.
1C	-re	2r	.	1c	.	.	.
.	.	.	.	.	.	4g/	.
.	.	2A/	no-	.	.	4f/	.
.	.	.	.	.	.	4e/	.
=30	=30	=30	=30	=30	=30	=30	=30
2BB-/	no-	2B-\	.	1F	.	2d/	.
2F\	.	2A/	.	.	.	1c	.
2E\	.	2G/	.	2c\	.	.	.
2D\	.	2F/	.	2B-\	.	2.f/	.
1C	.	1G	.	[1cl	-bis.	.	.
.	.	.	.	.	.	4e/	.
.	.	.	.	.	.	4e/	.
.	.	.	.	.	.	4d/	.
=31	=31	=31	=31	=31	=31	=31	=31
0.FFl	-bis.	0.Fl	-bis.	0.c]	.	0.fl	-bis.
!!LO:LB:i:g=z
=32||	=32||	=32||	=32||	=32||	=32||	=32||	=32||
*>B	*>B	*>B	*>B	*>B	*>B	*>B	*>B
*clefF4	*	*clefGv2	*	*clefGv2	*	*clefG2	*
*k[b-]	*	*k[b-]	*	*k[b-]	*	*k[b-]	*
*M2/1	*	*M2/1	*	*M2/1	*	*M2/1	*
*met(C|)	*	*met(C|)	*	*met(C|)	*	*met(C|)	*
!!section: Agnus Dei II
!!!OMD: Agnus Dei II
[0FF	A-	0r	.	0r	.	0r	.
=33	=33	=33	=33	=33	=33	=33	=33
1FF]	.	1F	A-	0r	.	0r	.
[1GG	-gnus	2E/	.	.	.	.	.
.	.	2D/	.	.	.	.	.
=34	=34	=34	=34	=34	=34	=34	=34
0GG]	.	2.G/	.	0r	.	0r	.
.	.	4F/	.	.	.	.	.
.	.	2E/	.	.	.	.	.
.	.	2D/	.	.	.	.	.
=35	=35	=35	=35	=35	=35	=35	=35
0AA	De-	2C/	-gnus	0r	.	0r	.
.	.	2F/	De-	.	.	.	.
.	.	2E/	.	.	.	.	.
.	.	[2A/	.	.	.	.	.
=36	=36	=36	=36	=36	=36	=36	=36
1C	.	4A/]	.	0r	.	0r	.
.	.	4G/	.	.	.	.	.
.	.	4F/	.	.	.	.	.
.	.	4E/	.	.	.	.	.
1BB-	.	2.D/	.	.	.	.	.
.	.	4E/	.	.	.	.	.
=37	=37	=37	=37	=37	=37	=37	=37
0AA	.	2F/	.	0r	.	0r	.
.	.	1G	.	.	.	.	.
.	.	2F#i/	.	.	.	.	.
=38	=38	=38	=38	=38	=38	=38	=38
0GG	-i,	0G	-i,	0B-	Qui	1.d	Qui
.	.	.	.	.	.	4e/	.
.	.	.	.	.	.	4f/	.
=39	=39	=39	=39	=39	=39	=39	=39
0r	.	0r	.	1B-	tol-	2g/	tol-
.	.	.	.	.	.	4f/	.
.	.	.	.	.	.	4e/	.
.	.	.	.	[1B-	-lis,	2d/	.
.	.	.	.	.	.	2f/	.
=40	=40	=40	=40	=40	=40	=40	=40
0r	.	0r	.	2B-\]	.	1g	-lis,
.	.	.	.	2c\	qui	.	.
.	.	.	.	2B-\	tol-	1g	qui
.	.	.	.	4A/	.	.	.
.	.	.	.	4G/	.	.	.
=41	=41	=41	=41	=41	=41	=41	=41
2.D\	qui	0r	.	1F	-lis,	0a	tol-
4C/	.	.	.	.	.	.	.
4D\	.	.	.	1r	.	.	.
4E\	.	.	.	.	.	.	.
[2F\	tol-	.	.	.	.	.	.
=42	=42	=42	=42	=42	=42	=42	=42
2F\]	.	0r	.	1r	.	1b-	.
2E\	.	.	.	.	.	.	.
1F	-lis,	.	.	2c\	qui	2a/	.
.	.	.	.	4B-\	tol-	2cc\	.
.	.	.	.	4A/	.	.	.
=43	=43	=43	=43	=43	=43	=43	=43
0r	.	1r	.	4G/	.	4b-\	.
.	.	.	.	4F/	.	4a/	.
.	.	.	.	1f	.	4g/	.
.	.	.	.	.	.	4f/	.
.	.	1c	qui	.	.	1g	.
.	.	.	.	2e\	.	.	.
=44	=44	=44	=44	=44	=44	=44	=44
1.BB-	tol-	1.d	tol-	1f	-lis,	1f	-lis
.	.	.	.	1r	.	1r	.
2AA/	.	2c\	.	.	.	.	.
=45	=45	=45	=45	=45	=45	=45	=45
2GG/	.	2d\	.	0r	.	0r	.
1AA	.	2c\	.	.	.	.	.
.	.	1B-	.	.	.	.	.
2GG/	.	.	.	.	.	.	.
=46	=46	=46	=46	=46	=46	=46	=46
1AA	-lis	1A	-lis	1c	pec-	4e/	pec-
.	.	.	.	.	.	4f/	.
.	.	.	.	.	.	4g/	.
.	.	.	.	.	.	4a/	.
1r	.	1r	.	2d\	-ca-	2b-\	-ca-
.	.	.	.	[2c\	.	2a/	.
=47	=47	=47	=47	=47	=47	=47	=47
0r	.	0r	.	2c\]	.	2g/	.
.	.	.	.	4B-\	.	2a/	.
.	.	.	.	4A/	.	.	.
.	.	.	.	1B-	.	4g/	.
.	.	.	.	.	.	4f/	.
.	.	.	.	.	.	4e/	.
.	.	.	.	.	.	4d/	.
=48	=48	=48	=48	=48	=48	=48	=48
1.F	pec-	2r	.	1A	-ta,	1c	-ta
.	.	2c\	pec-	.	.	.	.
.	.	2.d\	-ca-	1r	.	1r	.
2E\	.	.	.	.	.	.	.
.	.	4c\	.	.	.	.	.
=49	=49	=49	=49	=49	=49	=49	=49
2D\	-ca-	2B-\	.	0r	.	0r	.
2C/	.	1A	.	.	.	.	.
1BB-	-ta	.	.	.	.	.	.
.	.	2G/	.	.	.	.	.
=50	=50	=50	=50	=50	=50	=50	=50
2AA/	mun-	0A	-ta	2c\	mun-	0r	.
2C/	.	.	.	4d\	.	.	.
.	.	.	.	4e\	.	.	.
2D\	.	.	.	2f\	.	.	.
2C/	.	.	.	[2e\	.	.	.
=51	=51	=51	=51	=51	=51	=51	=51
1BB-	.	1D	mun-	2e\]	.	0r	.
.	.	.	.	1d	.	.	.
1AA	-di,	1E	.	.	.	.	.
.	.	.	.	2c#i\	.	.	.
=52	=52	=52	=52	=52	=52	=52	=52
0r	.	1D	.	2.d\	.	2r	.
.	.	.	.	.	.	1a	mi-
.	.	.	.	4c\	.	.	.
.	.	1E	.	1B-	.	.	.
.	.	.	.	.	.	2g/	-se-
=53	=53	=53	=53	=53	=53	=53	=53
2FF/	mi-	2F/	-di,	1A	-di,	1cc	-re-
2AA/	-se-	2C/	mi-	.	.	.	.
2GG/	-re-	2D/	-se-	2r	.	2b-\	.
2FF/	-re	[2F/	-re-	[2c\	mi-	2a/	.
=54	=54	=54	=54	=54	=54	=54	=54
1C	no-	2F/]	.	2c\]	.	1g	-re,
.	.	2E/	-re	2c\	-se-	.	.
2.D\	.	1F	no-	2A/	-re-	2r	.
.	.	.	.	2F/	-re,	[2a/	mi-
4C/	.	.	.	.	.	.	.
=55	=55	=55	=55	=55	=55	=55	=55
1BB-	.	1D	.	1r	.	2a/]	.
.	.	.	.	.	.	2g/	-se-
1AA	-bis,	2C/	.	2r	.	1cc	-re-
.	.	2c\	.	2A/	mi-	.	.
=56	=56	=56	=56	=56	=56	=56	=56
0r	.	1d	-bis,	2G/	.	2b-\	.
.	.	.	.	2F/	-se-	2a/	.
.	.	2r	.	1E	-re-	1g	-re,
.	.	2c\	no-	.	.	.	.
=57	=57	=57	=57	=57	=57	=57	=57
0r	.	2.d\	.	1D	-re	2r	.
.	.	.	.	.	.	1a	mi-
.	.	4c\	.	.	.	.	.
.	.	1B-	.	1d	no-	.	.
.	.	.	.	.	.	2g/	-se-
=58	=58	=58	=58	=58	=58	=58	=58
2r	.	1A	-bis,	2e\	.	1cc	-re-
2FF/	mi-	.	.	2f\	.	.	.
2GG/	.	2r	.	2d\	.	2b-\	.
2FF/	-se-	[2c\	no-	2f\	.	2a/	.
=59	=59	=59	=59	=59	=59	=59	=59
2.C/	-re-	2c\]	.	1.e	.	1g	-re
.	.	2.c\	-bis,	.	.	.	.
4BB-/	.	.	.	.	.	.	.
4AA/	.	.	.	.	.	2.cc\	no-
4GG/	.	4B-\	.	.	.	.	.
2FF/	-re	4A/	.	[2f\	.	.	.
.	.	4G/	.	.	.	4b-\	.
=60	=60	=60	=60	=60	=60	=60	=60
2.F\	no-	1F	.	4f\]	.	4a/	.
.	.	.	.	4e\	.	4g/	.
.	.	.	.	4d\	.	1a	.
4E\	.	.	.	4c\	.	.	.
4D\	.	2.F/	no-	2d\	.	.	.
4C/	.	.	.	.	.	.	.
2D\	.	.	.	2A/	.	4g/	.
.	.	4G/	.	.	.	4f/	.
=61	=61	=61	=61	=61	=61	=61	=61
2C/	.	2A/	.	2c\	.	2e/	.
2BB-/	.	2B-\	.	2d\	.	1f	.
1C	-bis,	1G	.	1c	-bis,	.	.
.	.	.	.	.	.	2e/	.
=62	=62	=62	=62	=62	=62	=62	=62
2.FF/	no-	0F	-bis,	2.A/	no-	[0f	-bis,
4GG/	.	.	.	4B-\	.	.	.
2AA/	.	.	.	2c\	.	.	.
2BB-/	.	.	.	[2F/	.	.	.
=63	=63	=63	=63	=63	=63	=63	=63
1FF	.	2r	.	4F/]	.	0f]	.
.	.	.	.	4G/	.	.	.
.	.	2.F/	no-	2A/	.	.	.
2BB-/	.	.	.	2B-\	.	.	.
.	.	4G/	.	.	.	.	.
2AA/	.	2A/	.	2c\	.	.	.
=64	=64	=64	=64	=64	=64	=64	=64
2GG/	.	2B-\	.	2d\	.	[0g	.
2C/	.	1c	.	2e\	.	.	.
1GG	.	.	.	1d	.	.	.
.	.	2Bni\	.	.	.	.	.
=65	=65	=65	=65	=65	=65	=65	=65
2C/	.	2c\	.	2e\	.	0g]	.
2BB-/	.	2d\	.	2d\	.	.	.
1C	.	1e	.	1c	-bis,	.	.
=66	=66	=66	=66	=66	=66	=66	=66
1GG	-bis,	1d	-bis,	2r	.	1b-	mi-
.	.	.	.	2G/	mi-	.	.
1r	.	1r	.	2.c\	.	2a/	-se-
.	.	.	.	.	.	[2cc\	-re-
.	.	.	.	4B-\	.	.	.
=67	=67	=67	=67	=67	=67	=67	=67
0r	.	0r	.	4A/	.	4cc\]	.
.	.	.	.	4G/	.	4b-\	.
.	.	.	.	2F/	-se-	4a/	.
.	.	.	.	.	.	4g/	.
.	.	.	.	2B-\	-re-	2f/	.
.	.	.	.	2G/	-re	2b-\	-re
=68	=68	=68	=68	=68	=68	=68	=68
1r	.	0r	.	2F/	no-	2a/	no-
.	.	.	.	2G/	.	1g	.
1D	mi-	.	.	1A	.	.	.
.	.	.	.	.	.	2f#i/	.
=69	=69	=69	=69	=69	=69	=69	=69
2.E\	.	1B-	mi-	1G	-bis,	1g	-bis,
4D\	.	.	.	.	.	.	.
2E\	.	2G/	-se-	1r	.	1r	.
2C/	-se-	[2c\	-re-	.	.	.	.
=70	=70	=70	=70	=70	=70	=70	=70
2.F\	-re-	4c\]	.	0r	.	0r	.
.	.	4B-\	.	.	.	.	.
.	.	4A/	.	.	.	.	.
4E\	.	4G/	.	.	.	.	.
4D\	.	2F/	.	.	.	.	.
4C/	.	.	.	.	.	.	.
2BB-/	-re	2B-\	-re	.	.	.	.
=71	=71	=71	=71	=71	=71	=71	=71
2C/	no-	2A/	no-	0r	.	1r	.
2GG/	.	1G	.	.	.	.	.
1AA	.	.	.	.	.	1cc	no-
.	.	2F#i/	.	.	.	.	.
=72	=72	=72	=72	=72	=72	=72	=72
1GG	-bis,	1G	-bis,	2D/	no-	2.b-\	.
.	.	.	.	4G/	.	.	.
.	.	.	.	4F/	.	4a/	.
2r	.	2.c\	no-	4E/	.	4g/	.
.	.	.	.	4D/	.	4f/	.
[2C/	no-	.	.	2C/	-bis,	4e/	.
.	.	4B-\	.	.	.	4d/	.
=73	=73	=73	=73	=73	=73	=73	=73
4C/]	.	4A/	.	2.c\	no-	2c/	-bis,
4BB-/	.	4G/	.	.	.	.	.
4AA/	.	2F/	-bis,	.	.	2.cc\	no-
4GG/	.	.	.	4B-\	.	.	.
2FF/	.	2r	.	4A/	.	.	.
.	.	.	.	4G/	.	4b-\	.
4F\	.	2F/	no-	2c\	.	4a/	.
4E\	.	.	.	.	.	4g/	.
=74	=74	=74	=74	=74	=74	=74	=74
4D\	.	2.B-\	.	1d	-bis,	2f/	.
4C/	.	.	.	.	.	.	.
2BB-/	-bis,	.	.	.	.	2.b-\	.
.	.	4A/	.	.	.	.	.
2r	.	4G/	.	2r	.	.	.
.	.	4F/	.	.	.	4a/	.
[2C/	no-	4E/	.	2G/	no-	4g/	.
.	.	4D/	.	.	.	4f/	.
=75	=75	=75	=75	=75	=75	=75	=75
2C/]	.	2C/	.	[0cl	-bis.	2e/	.
2FF/	.	2F/	.	.	.	1f	.
1C	.	1G	.	.	.	.	.
.	.	.	.	.	.	2e/	.
=76	=76	=76	=76	=76	=76	=76	=76
0FFl	-bis.	0Fl	-bis.	0c]	.	0fl	-bis.
!!LO:LB:i:g=z
=77||	=77||	=77||	=77||	=77||	=77||	=77||	=77||
*>C	*>C	*>C	*>C	*>C	*>C	*>C	*>C
*clefF4	*	*clefGv2	*	*clefGv2	*	*clefG2	*
*k[b-]	*	*k[b-]	*	*k[b-]	*	*k[b-]	*
*M2/1	*	*M2/1	*	*M2/1	*	*M2/1	*
*met(O)	*	*met(O)	*	*met(O)	*	*met(O)	*
*	*	*	*	*	*	*rscale:1/2	*
!!section: Agnus Dei III
!!!OMD: Agnus Dei III
!	!	!	!	!	!	!LO:N:vis=0	!
1F	A-	0r	.	0r	.	[y0c	A-
2C/	-gnus	.	.	.	.	.	.
[2F\	De-	.	.	.	.	.	.
=78	=78	=78	=78	=78	=78	=78-	=78
!	!	!	!	!	!	!LO:TX:X=-40:Z=48:t=S sings two c.f. phrases thrice, each time under a different mensuration	!
!	!	!	!	!	!	!LO:TX:X=-40:Z=25:t=sign. The first phrase is sung at successively higher pitch levels,	!
!	!	!	!	!	!	!LO:TX:X=-40:Z=6:t=the second at successively lower pitch levels.	!
2F\]	.	1r	.	1r	.	0c]yy	.
2E\	.	.	.	.	.	.	.
2F\	.	1A	A-	2F/	A-	.	.
2FF/	-i,	.	.	4E/	.	.	.
.	.	.	.	4D/	.	.	.
=79	=79	=79	=79	=79	=79	=79-	=79
0r	.	2E/	-gnus	2C/	.	0c	-gnus
.	.	1A	De-	2F/	.	.	.
.	.	.	.	1E	-gnus	.	.
.	.	2G/	.	.	.	.	.
=80	=80	=80	=80	=80	=80	=80	=80
!	!	!	!	!	!	!LO:N:vis=0	!
2.BB-/	De-	2F/	.	2.D/	De-	[y0d	De-
.	.	1B-	.	.	.	.	.
4C/	.	.	.	4E/	.	.	.
4D\	.	.	.	4F/	.	.	.
4E\	.	.	.	4G/	.	.	.
4F\	.	2A/	.	2A/	.	.	.
4D\	.	.	.	.	.	.	.
=81	=81	=81	=81	=81	=81	=81-	=81
2G\	.	2.G/	.	2.B-\	.	0d]yy	.
2.GG/	.	.	.	.	.	.	.
.	.	4A/	.	4c\	.	.	.
.	.	4B-\	.	2.d\	.	.	.
4AA/	.	4c\	.	.	.	.	.
2BB-/	.	[2d\	.	.	.	.	.
.	.	.	.	4c\	.	.	.
=82	=82	=82	=82	=82	=82	=82-	=82
2GG/	.	4d\]	.	4B-\	.	0d	-i,
.	.	4c\	.	4A/	.	.	.
2.G\	.	4B-\	.	2G/	.	.	.
.	.	4A/	.	.	.	.	.
.	.	[1G	-i,	1B-	-i,	.	.
4F\	.	.	.	.	.	.	.
4E\	.	.	.	.	.	.	.
4D\	.	.	.	.	.	.	.
=83	=83	=83	=83	=83	=83	=83	=83
!	!	!	!	!	!	!LO:N:vis=0	!
2C/	-i,	2G/]	.	2r	.	[y0e	A-
1AA	A-	2A/	A-	1c	A-	.	.
.	.	2E/	-gnus	.	.	.	.
2AA/	-gnus	[2c\	De-	4B-\	.	.	.
.	.	.	.	4A/	.	.	.
=84	=84	=84	=84	=84	=84	=84-	=84
1C	De-	2c\]	.	2G/	.	0e]yy	.
.	.	4B-\	.	2A/	.	.	.
.	.	4A/	.	.	.	.	.
[1C	-i,	2G/	.	1E	-gnus,	.	.
.	.	2A/	.	.	.	.	.
=85	=85	=85	=85	=85	=85	=85-	=85
2C/]	.	2E/	-i,	2r	.	0e	-gnus
2.AA/	A-	1A	A-	1c	A-	.	.
4BB-/	.	.	.	.	.	.	.
4C/	.	[2G/	.	2c\	-gnus	.	.
4D\	.	.	.	.	.	.	.
=86	=86	=86	=86	=86	=86	=86	=86
!	!	!	!	!	!	!LO:N:vis=0	!
2E\	-gnus	2G/]	.	2Bn\	De-	[y0g	De-
2.C/	De-	2G/	-gnus	2c\	.	.	.
.	.	2c\	De-	1G	-i,	.	.
4D\	.	.	.	.	.	.	.
4E\	.	[2C/	.	.	.	.	.
4F\	.	.	.	.	.	.	.
=87	=87	=87	=87	=87	=87	=87-	=87
2G\	-i,	4C/]	.	2r	.	0g]yy	.
.	.	4D/	.	.	.	.	.
2.GG/	A-	4E/	.	1B-i	A-	.	.
.	.	4F/	.	.	.	.	.
.	.	2G/	-i,	.	.	.	.
4AA/	.	.	.	.	.	.	.
4BB-/	.	[2D/	A-	2B-i\	-gnus	.	.
4C/	.	.	.	.	.	.	.
=88	=88	=88	=88	=88	=88	=88-	=88
2D\	-gnus	4D/]	.	2A/	De-	0f	.
.	.	4E/	.	.	.	.	.
2.BB-/	De-	2F/	-gnus	2B-\	.	.	.
.	.	2B-\	De-	1F	-i,	.	.
4C/	.	.	.	.	.	.	.
2D\	-i,	2A/	.	.	.	.	.
=89	=89	=89	=89	=89	=89	=89	=89
2r	.	2.B-\	.	4G/	A-	0d	.
.	.	.	.	4A/	.	.	.
4GG/	A-	.	.	4B-\	.	.	.
4AA/	.	8A/L	.	4c\	.	.	.
.	.	8G/J	.	.	.	.	.
4BB-/	.	1F	-i,	2d\	.	.	.
4C/	.	.	.	.	.	.	.
2D\	-gnus	.	.	2B-\	.	.	.
=90	=90	=90	=90	=90	=90	=90-	=90
!	!	!	!	!	!	!LO:N:vis=0	!
2C/	De-	2G/	A-	1.c	.	[y0e	.
2AA/	.	2.A/	.	.	.	.	.
1AA	-i,	.	.	.	.	.	.
.	.	4B-\	.	.	.	.	.
.	.	[2c\	.	2A/	.	.	.
=91	=91	=91	=91	=91	=91	=91-	=91
2E\	A-	2c\]	.	2G/	.	0e]yy	.
2C/	.	2c\	-gnus	2.c\	.	.	.
1C	-gnus	2G/	De-	.	.	.	.
.	.	.	.	4B-\	.	.	.
.	.	2c\	.	2G/	.	.	.
=92	=92	=92	=92	=92	=92	=92	=92
!	!	!	!	!	!	!LO:N:vis=0.	!
2BB-/	De-	2F/	.	1.B-	.	[y0d	-i,
2GG/	.	2.G/	.	.	.	.	.
1GG	-i,	.	.	.	.	.	.
.	.	4A/	.	.	.	.	.
.	.	2B-\	.	2G/	.	.	.
=93	=93	=93	=93	=93	=93	=93-	=93
2D\	A-	2A/	.	2F/	.	0d_yy	.
2BB-/	.	2d\	.	2.B-\	.	.	.
1BB-	-gnus	1D	-i,	.	.	.	.
.	.	.	.	4A/	.	.	.
.	.	.	.	2F/	-gnus	.	.
=94	=94	=94	=94	=94	=94	=94-	=94
2.GG/	De-	1.B-	De-	2r	.	0d]yy	.
.	.	.	.	1G	De-	.	.
4AA/	.	.	.	.	.	.	.
4BB-/	.	.	.	.	.	.	.
4C/	.	.	.	.	.	.	.
2D\	.	2A/	.	2F/	.	.	.
*	*	*	*	*	*	*rscale:1	*
=95	=95	=95	=95	=95	=95	=95	=95
*	*	*	*	*	*	*M3/1	*
*	*	*	*	*	*	*met(O|)	*
2BB-/	.	1.B-	.	2D/	.	0d	qui
2GG/	.	.	.	2.G/	.	.	.
1GG	-i,	.	.	.	.	.	.
.	.	.	.	4F/	.	.	.
.	.	2G/	.	2D/	-i,	.	.
=96	=96	=96	=96	=96	=96	=96-	=96
1GG	De-	1G	-i,	2r	.	1d	tol-
.	.	.	.	2B-\	qui	.	.
=-	=-	=-	=-	=-	=-	=	=
!	!	!	!	!	!	!LO:N:vis=0	!
1C	-i,	1E	qui	2A/	tol-	[y1e	.
.	.	.	.	2G/	.	.	.
=97	=97	=97	=97	=97	=97	=97-	=97
2r	.	1A	tol-	1c	-lis,	1e]yy	.
2AA/	qui	.	.	.	.	.	.
2C/	tol-	2G/	.	2r	.	1e	-lis,
2AA/	.	2A/	.	2c\	qui	.	.
=98	=98	=98	=98	=98	=98	=98	=98
1D	-lis,	2.F/	.	2B-\	tol-	0f	qui
.	.	.	.	2A/	.	.	.
.	.	4D/	.	.	.	.	.
2r	.	1D	.	1d	-lis,	.	.
2F\	qui	.	.	.	.	.	.
=99	=99	=99	=99	=99	=99	=99-	=99
2D\	tol-	2A/	-lis,	2r	.	1f	tol-
2BB-/	.	2B-\	qui	2f\	qui	.	.
=-	=-	=-	=-	=-	=-	=	=
!	!	!	!	!	!	!LO:N:vis=0	!
1F	-lis,	2.A/	tol-	2d\	tol-	[y1a	.
.	.	.	.	2c\	.	.	.
.	.	4F/	.	.	.	.	.
=100	=100	=100	=100	=100	=100	=100-	=100
2r	.	2.F/	.	1f	-lis,	1a]yy	.
2FF/	qui	.	.	.	.	.	.
.	.	4C/	.	.	.	.	.
1C	tol-	2.E/	.	2r	.	1g	.
.	.	.	.	[2c\	qui	.	.
.	.	4F/	.	.	.	.	.
=101	=101	=101	=101	=101	=101	=101	=101
1C	-lis,	2G/	.	2c\]	.	1e	.
.	.	2A/	.	2c\	tol-	.	.
!	!	!	!	!	!	!LO:N:vis=0	!
2BB-/	qui	2B-\	.	2d\	.	[y1f	.
2C/	.	2A/	.	[2c\	.	.	.
=102	=102	=102	=102	=102	=102	=102-	=102
1D	tol-	1F	.	2c\]	.	1f]yy	.
.	.	.	.	2Bni\	.	.	.
=-	=-	=-	=-	=-	=-	=	=
!	!	!	!	!	!	!LO:N:vis=0.	!
1C	-lis,	1G	-lis,	2.c\	.	[y1e	-lis,
.	.	.	.	4B-i\	.	.	.
=103	=103	=103	=103	=103	=103	=103-	=103
2.C/	qui	1r	.	2A/	.	0e]yy	.
.	.	.	.	2G/	-lis,	.	.
4BB-/	.	.	.	.	.	.	.
2AA/	.	2.c\	qui	2r	.	.	.
2GG/	.	.	.	2G/	qui	.	.
.	.	4B-\	.	.	.	.	.
=104	=104	=104	=104	=104	=104	=104	=104
*M3/1	*	*M3/1	*	*M3/1	*	*M3/1	*
*met(O)	*	*met(O)	*	*met(O)	*	*met(O)	*
*met(O/3)	*	*met(O/3)	*	*met(O/3)	*	*met(3)	*
1AA	tol-	0A	.	0c	.	0e	qui
2C/	.	.	.	.	.	.	.
2D\	.	.	.	.	.	.	.
1E	-lis	1G	tol-	1c	tol-	1e	tol-
=105	=105	=105	=105	=105	=105	=105	=105
0D	pec-	0A	-lis	0d	-lis	0f	-lis
1D	-ca-	1B-	pec-	1d	pec-	1f	pec-
=106	=106	=106	=106	=106	=106	=106	=106
0C	-ta	0c	-ca-	0e	-ca-	0g	-ca-
1C	mun-	1C	-ta	1e	-ta	1g	-ta
=107	=107	=107	=107	=107	=107	=107	=107
0GG	-di,	0G	mun-	1.d	mun-	0b-	mun-
.	.	.	.	2B-\	.	.	.
1r	.	[1F	.	1c	.	1a	.
=108	=108	=108	=108	=108	=108	=108	=108
0.r	.	1F]	.	0f	.	1f	.
.	.	0c	.	.	.	0g	.
.	.	.	.	1e	.	.	.
=109	=109	=109	=109	=109	=109	=109	=109
0BB-	do-	0d	-di,	0f	-di,	0.f	-di,
1BB-	-na	1D	do-	1r	.	.	.
=110	=110	=110	=110	=110	=110	=110	=110
*M2/1	*	*M2/1	*	*M2/1	*	*M2/1	*
*met(C|)	*	*met(C|)	*	*met(C|)	*	*met(O)	*
*	*	*	*	*	*	*rscale:1/2	*
!	!	!	!	!	!	!LO:N:vis=0	!
1AA	no-	2E/	-na	0r	.	[y0cc	do-
.	.	2.F/	no-	.	.	.	.
2FF/	.	.	.	.	.	.	.
.	.	4G/	.	.	.	.	.
[2F\	.	[2A/	.	.	.	.	.
=111	=111	=111	=111	=111	=111	=111-	=111
2F\]	.	4A/]	.	0r	.	0cc]yy	.
.	.	4F/	.	.	.	.	.
4E\	.	1B-	.	.	.	.	.
4D\	.	.	.	.	.	.	.
1C	.	.	.	.	.	.	.
.	.	2A/	.	.	.	.	.
=112	=112	=112	=112	=112	=112	=112-	=112
1BB-	-bis,	2B-\	-bis,	1f	do-	0dd	.
.	.	2F/	no-	.	.	.	.
1BB-	do-	1B-	.	2d\	-na	.	.
.	.	.	.	[2f\	no-	.	.
=113	=113	=113	=113	=113	=113	=113	=113
2FF/	-na	2A/	.	2f\]	.	0cc	.
1C	no-	2G/	.	2e\	.	.	.
.	.	1c	.	2c\	.	.	.
2C/	-bis,	.	.	[2e-\	.	.	.
=114	=114	=114	=114	=114	=114	=114-	=114
!	!	!	!	!	!	!LO:N:vis=0	!
2E-\	no-	4G/	.	2e-\]	.	[y0b-	.
.	.	4A/	.	.	.	.	.
1G	.	4B-\	.	2d\	.	.	.
.	.	4c\	.	.	.	.	.
.	.	2.d\	.	2B-\	.	.	.
2GG/	.	.	.	[2d\	.	.	.
.	.	4D/	.	.	.	.	.
=115	=115	=115	=115	=115	=115	=115-	=115
1GG	-bis,	1G	.	2d\]	.	0b-]yy	.
.	.	.	.	2B-\	.	.	.
2r	.	1d	-bis,	2G/	.	.	.
2G\	do-	.	.	[2d\	.	.	.
=116	=116	=116	=116	=116	=116	=116	=116
!	!	!	!	!	!	!LO:N:vis=0.	!
2D\	-na	2r	.	2d\]	.	[y0a	-na
1F	no-	2A/	no-	2c\	.	.	.
.	.	2c\	.	2A/	.	.	.
2F\	-bis,	[2A/	.	[2c\	.	.	.
=117	=117	=117	=117	=117	=117	=117-	=117
1FF	do-	4A/]	.	2c\]	.	0a_yy	.
.	.	4B-\	.	.	.	.	.
.	.	2c\	.	2.A/	.	.	.
2FF/	-na	2F/	.	.	.	.	.
.	.	.	.	4G/	.	.	.
[2F\	no-	2c\	.	4F/	.	.	.
.	.	.	.	4E/	.	.	.
=118	=118	=118	=118	=118	=118	=118-	=118
4F\]	.	2d\	.	4D/	.	0a]yy	.
4G\	.	.	.	4E/	.	.	.
2.A\	.	2.c\	.	4F/	.	.	.
.	.	.	.	4G/	.	.	.
.	.	.	.	4A/	.	.	.
4G\	.	4B-\	.	4B-\	.	.	.
2F\	-bis,	[2A/	.	[2c\	.	.	.
=119	=119	=119	=119	=119	=119	=119	=119
!	!	!	!	!	!	!LO:N:vis=0	!
2.FF/	no-	4A/]	.	4c\]	.	[y0cc	no-
.	.	4G/	.	4B-\	.	.	.
.	.	2F/	.	2.A/	.	.	.
4GG/	.	.	.	.	.	.	.
2.AA/	.	2E/	.	.	.	.	.
.	.	.	.	4G/	.	.	.
.	.	[2A/	.	4F/	.	.	.
4GG/	.	.	.	4E/	.	.	.
=120	=120	=120	=120	=120	=120	=120-	=120
2FF/	.	2A/]	.	2F/	.	0cc]yy	.
2GG/	.	1G	.	4E/	.	.	.
.	.	.	.	4D/	.	.	.
1AA	.	.	.	1C	.	.	.
.	.	2F#i/	.	.	.	.	.
=121	=121	=121	=121	=121	=121	=121-	=121
2GG/	.	2.G/	.	2D/	-bis,	0b-	.
1G	.	.	.	2.d\	no-	.	.
.	.	4A/	.	.	.	.	.
.	.	4B-\	.	.	.	.	.
.	.	4c\	.	4e\	.	.	.
[2D\	.	2d\	-bis,	[2f\	.	.	.
=122	=122	=122	=122	=122	=122	=122	=122
2D\]	.	1r	.	4f\]	.	0a	.
.	.	.	.	4e\	.	.	.
1F	.	.	.	1c	.	.	.
.	.	2A/	no-	.	.	.	.
[2C/	.	[2c\	.	2c\	-bis,	.	.
=123	=123	=123	=123	=123	=123	=123-	=123
!	!	!	!	!	!	!LO:N:vis=0	!
2C/]	.	4c\]	.	2.e-\	pa-	[y0g	.
.	.	4B-\	.	.	.	.	.
2.E-i\	.	2G/	-bis,	.	.	.	.
.	.	.	.	4d\	.	.	.
.	.	1r	.	4c\	.	.	.
4D\	.	.	.	4B-\	.	.	.
4C/	.	.	.	2c\	.	.	.
4BB-/	.	.	.	.	.	.	.
=124	=124	=124	=124	=124	=124	=124-	=124
2C/	.	1r	.	2G/	.	0g]yy	.
2GG/	.	.	.	2d\	.	.	.
1C	-bis,	1c	do-	1e	-cem,	.	.
=125	=125	=125	=125	=125	=125	=125	=125
!	!	!	!	!	!	!LO:N:vis=0.	!
2D\	do-	2A/	.	2f\	do-	[y0f	-bis,
2BB-/	-na	2B-\	-na	2d\	-na	.	.
2AA/	no-	2c\	no-	2c\	no-	.	.
[2BB-/	.	[2F/	.	[2d\	.	.	.
=126	=126	=126	=126	=126	=126	=126-	=126
4BB-/]	.	2F/]	.	4d\]	.	0f_yy	.
4C/	.	.	.	4c\	.	.	.
4D\	.	2F/	-bis,	2B-\	.	.	.
4E\	.	.	.	.	.	.	.
2F\	.	1D	.	2A/	.	.	.
2BB-/	-bis	.	.	[2B-\	.	.	.
=127	=127	=127	=127	=127	=127	=127-	=127
2r	.	2.d\	no-	4B-\]	.	0f]yy	.
.	.	.	.	4A/	.	.	.
2.D\	no-	.	.	2F/	.	.	.
.	.	4c\	.	.	.	.	.
.	.	4B-\	.	1d	-bis,	.	.
4C/	.	4A/	.	.	.	.	.
4BB-/	.	[2B-\	.	.	.	.	.
4AA/	.	.	.	.	.	.	.
*	*	*	*	*	*	*rscale:1	*
=128	=128	=128	=128	=128	=128	=128	=128
*	*	*	*	*	*	*M2/1	*
*	*	*	*	*	*	*met(O|)	*
2GG/	.	4B-\]	.	1r	.	0b-	do-
.	.	4A/	.	.	.	.	.
2AA/	.	4G/	.	.	.	.	.
.	.	4F/	.	.	.	.	.
1BB-	.	1G	.	2r	.	.	.
.	.	.	.	2D/	do-	.	.
=129	=129	=129	=129	=129	=129	=129-	=129
2AA/	.	1A	-bis,	2E/	.	1cc	.
!	!	!	!	!LO:N:vis=1	!	!	!
2FF/	.	.	.	[y2F	.	.	.
=-	=-	=-	=-	=-	=-	=	=
1GG	-bis,	1r	.	2F]yy	.	1b-	.
.	.	.	.	2E/	.	.	.
=130	=130	=130	=130	=130	=130	=130-	=130
2.FF/	do-	2r	.	4F/	.	0a	.
.	.	.	.	4G/	.	.	.
.	.	2.F/	do-	4A/	.	.	.
4GG/	.	.	.	4B-\	.	.	.
4AA/	.	.	.	1c	-na	.	.
4BB-/	.	4G/	.	.	.	.	.
4C/	.	4A/	.	.	.	.	.
4D\	.	4B-\	.	.	.	.	.
=131	=131	=131	=131	=131	=131	=131	=131
!	!	!	!	!	!	!LO:N:vis=0.	!
2.E-\	.	2c\	-na	2r	.	[y0g	-na
.	.	2.G/	no-	1e-i	no-	.	.
4D\	.	.	.	.	.	.	.
2C/	.	.	.	.	.	.	.
.	.	4A/	.	.	.	.	.
2BB-/	.	2B-\	.	2d\	.	.	.
=132	=132	=132	=132	=132	=132	=132-	=132
2C/	.	2E-i/	.	2c\	.	1g]yy	.
!LO:N:vis=1	!	!LO:N:vis=1	!	!LO:N:vis=1	!	!	!
[y2GG	-na	[y2G	.	[y2B-	.	.	.
=-	=-	=-	=-	=-	=-	=	=
!	!	!	!	!	!	!LO:N:vis=0	!
2GG]yy	.	2G]yy	.	2B-]yy	.	[y1b-	no-
[2BB-/	no-	4F/	.	4A/	.	.	.
.	.	4Eni/	.	4G/	.	.	.
=133	=133	=133	=133	=133	=133	=133-	=133
2BB-/]	.	2.D/	.	1F	-bis,	1b-]yy	.
4AA/	.	.	.	.	.	.	.
4GG/	.	4E/	.	.	.	.	.
1FF	-bis,	1F	-bis,	[1c	do-	1a	.
=134	=134	=134	=134	=134	=134	=134	=134
1r	.	1E-	do-	2c\]	.	1g	.
.	.	.	.	1.B-	.	.	.
!	!	!	!	!	!	!LO:N:vis=0	!
1BB-	no-	2D/	-na	.	.	[y1f	.
.	.	[2F/	no-	.	.	.	.
=135	=135	=135	=135	=135	=135	=135-	=135
!	!	!	!	!LO:N:vis=1.	!	!	!
1D	.	4F/]	.	[1A	.	1f]yy	.
.	.	4G/	.	.	.	.	.
.	.	4A/	.	.	.	.	.
.	.	4B-\	.	.	.	.	.
=-	=-	=-	=-	=-	=-	=	=
!	!	!	!	!	!	!LO:N:vis=0.	!
2AA/	.	1c	-bis,	2A]yy	.	[y1e	-bis,
[2C/	.	.	.	[2G/	.	.	.
=136	=136	=136	=136	=136	=136	=136-	=136
2C/]	.	1r	.	1G]	.	0e]yy	.
2C/	-bis,	.	.	.	.	.	.
1AA	.	1c	do-	1A	-na	.	.
=137	=137	=137	=137	=137	=137	=137	=137
*M3/1	*	*M3/1	*	*M3/1	*	*M3/1	*
*met(O/3)	*	*met(O/3)	*	*met(O/3)	*	*met(3)	*
0GG	do-	0B-	.	1.D	do-	0g	do-
.	.	.	.	2E/	.	.	.
1FF	-na	1c	-na	1F	-na	1a	-na
=138	=138	=138	=138	=138	=138	=138	=138
2GG/	no-	0B-	no-	1.D	no-	1g	no-
2AA/	.	.	.	.	.	.	.
2BB-/	.	.	.	.	.	0f	.
2C/	.	.	.	2E/	.	.	.
1D	.	1B-	-bis	1F	.	.	.
=139	=139	=139	=139	=139	=139	=139	=139
0.C	-bis	1c	pa-	1G	-bis	0.e	-bis
.	.	1A	.	0c	pa-	.	.
.	.	[1G	.	.	.	.	.
=140	=140	=140	=140	=140	=140	=140	=140
0E-	pa-	2G/]	.	1.B-	.	0g	pa-
.	.	2A/	.	.	.	.	.
.	.	0B-	.	.	.	.	.
.	.	.	.	2c\	.	.	.
1D	.	.	.	1d	.	1f	.
=141	=141	=141	=141	=141	=141	=141	=141
1C	.	1c	-cem,	1G	-cem,	1e	.
0G	.	1c	pa-	1r	.	0d	.
.	.	1Bni	.	1r	.	.	.
=142	=142	=142	=142	=142	=142	=142	=142
2C/	.	1.c	.	1.G	pa-	[0.cl	-cem.
2BB-/	.	.	.	.	.	.	.
2AA/	.	.	.	.	.	.	.
2GG/	.	2B-\	.	2E/	.	.	.
[1FF	.	2A/	.	1F	.	.	.
.	.	2G/	.	.	.	.	.
=143	=143	=143	=143	=143	=143	=143	=143
1FF]	.	0F	.	1A	.	0.c_	.
0C	-cem,	.	.	0G	-cem,	.	.
.	.	1E	-cem,	.	.	.	.
=144	=144	=144	=144	=144	=144	=144	=144
1.FF	pa-	2A/	pa-	2F/	pa-	0.c_	.
.	.	2B-\	.	2G/	.	.	.
.	.	2c\	.	2A/	.	.	.
2GG/	.	2B-\	.	2B-\	.	.	.
2AA/	.	1A	.	2c\	.	.	.
2BB-/	.	.	.	2d\	.	.	.
=145	=145	=145	=145	=145	=145	=145	=145
1.C	.	2G/	.	2e\	.	0.c_	.
.	.	2F/	.	2f\	.	.	.
.	.	2E/	.	1.g	.	.	.
2D\	.	2D/	.	.	.	.	.
1E	.	1C	.	.	.	.	.
.	.	.	.	2f\	.	.	.
=146	=146	=146	=146	=146	=146	=146	=146
1F	.	1F	.	0f	.	0.c_	.
0C	.	0G	.	.	.	.	.
.	.	.	.	1e	.	.	.
=147	=147	=147	=147	=147	=147	=147	=147
0.FFl	-cem.	0.Fl	-cem.	0.fl	-cem.	0.c]	.
==	==	==	==	==	==	==	==
*-	*-	*-	*-	*-	*-	*-	*-
!!!RDF**kern: l=long note in original notation
!!!RDF**kern: i=editorial accidental
!!!ENC:	Jesse Rodin 8/10/2013
!!!END:	2013/08/11/
!!!EED:	Jesse Rodin
!!!EEV:	2013/08/11/
!!!ONB:	Translated from MusicXML and edited on 2013/08/11/ by Craig Sapp
!!muse2ps: T^@{OPR}^u^@{ONM}{. }@{OTL}^C^@{COM}^i2I150v85,85,85,130c170
